!!!COM: Palestrina, Giovanni Perluigi da
!!!OPR: Missa Ut re mi fa sol la
!!!OMD: Sanctus
!!!OTL: Pleni
**kern	**kern	**kern	**kern
*Icalto	*Icalto	*Icant	*Icant
!Altus 2	!Altus 1	!Cantus 2	!Cantus 1
*clefG2	*clefG2	*clefG2	*clefG2
*k[]	*k[]	*k[]	*k[]
*C:ion	*C:ion	*C:ion	*C:ion
*M4/2	*M4/2	*M4/2	*M4/2
=52	=52	=52	=52
0r	0r	0r	1cc
.	.	.	1ee
=53	=53	=53	=53
0r	0r	0r	1ff#
.	.	.	2.gg
.	.	.	4ff
=54	=54	=54	=54
1c	0r	1r	4ee
.	.	.	4dd
.	.	.	1cc
1e	.	1g	.
.	.	.	2b
=55	=55	=55	=55
1f#	0r	1a	1a
2.g	.	1b	2g
.	.	.	[2gg
4f	.	.	.
=56	=56	=56	=56
4e	0r	1cc	4gg]
4d	.	.	4ff
1c	.	.	1ee
.	.	1dd	.
2B	.	.	[2dd
=57	=57	=57	=57
2A	0r	1ee	4dd]
.	.	.	4cc
2a	.	.	1cc
2f	.	1dd	.
2g	.	.	2b
=58	=58	=58	=58
2.e	1c	1cc	0ee
4f	.	.	.
1g	1e	1b	.
=59	=59	=59	=59
1d	1f#	1a	2.dd
.	.	.	4cc
2r	2.g	1g	1b
[2g	.	.	.
.	4f	.	.
=60	=60	=60	=60
4g]	4e	0r	2r
4f	4d	.	.
4e	1c	.	2g
4d	.	.	.
2c	.	.	2a
2d	2B	.	2b
=61	=61	=61	=61
2e	1A	1r	1cc
2c	.	.	.
1e	2G	1g	2.b
.	[2g	.	.
.	.	.	4cc
=62	=62	=62	=62
1d	2g]	1a	1dd
.	2f#	.	.
1r	1g	1b	2r
.	.	.	2dd
=63	=63	=63	=63
2r	2c	1cc	1ee
2g	2e	.	.
2a	2d	1dd	2ff#
2b	2g	.	2gg
=64	=64	=64	=64
1cc	1c	1ee	2cc
.	.	.	1gg
2b	2r	1dd	.
2a	2d	.	2ff
=65	=65	=65	=65
2g	2e	1cc	2ee
2.a	2f#	.	4dd
.	.	.	4cc
.	2g	1b	2ee
4g	.	.	.
[2g	2G	.	2dd
=66	=66	=66	=66
2g]	1d	0a	1dd
4f	.	.	.
4e	.	.	.
1f#	2.d	.	2r
.	.	.	[2dd
.	4c	.	.
=67	=67	=67	=67
1g	2B	[0g	2dd]
.	2G	.	2b
1r	1c	.	2cc
.	.	.	2ee
=68	=68	=68	=68
2r	1G	1g]	2.dd
1g	.	.	.
.	.	.	4cc
.	1r	1r	2b
2e	.	.	2cc
=69	=69	=69	=69
2f	0r	0r	4a
.	.	.	4b
2a	.	.	4cc
.	.	.	4dd
2.g	.	.	2ee
.	.	.	[2dd
4f	.	.	.
=70	=70	=70	=70
2e	0r	0r	4dd]
.	.	.	4cc
2f	.	.	2cc
4d	.	.	1ff
4e	.	.	.
4f	.	.	.
4g	.	.	.
=71	=71	=71	=71
4a	1r	0r	1ee
4b	.	.	.
1cc	.	.	.
.	2r	.	2dd
4b	[2g	.	2cc
4a	.	.	.
=72	=72	=72	=72
2b	2g]	1g	2dd
1cc	2e	.	2ee
.	2f	1a	2.cc
2f	2a	.	.
.	.	.	4dd
=73	=73	=73	=73
0r	2.g	1b	2ee
.	.	.	2.dd
.	4f	.	.
.	2e	1cc	.
.	.	.	4cc
.	2f	.	[2cc
=74	=74	=74	=74
2r	2d	1dd	2cc]
1g	2G	.	2b
.	1c	1ee	1cc
2e	.	.	.
=75	=75	=75	=75
2f	2.d	1dd	0r
1a	.	.	.
.	4e	.	.
.	2f	1cc	.
[2g	[2e	.	.
=76	=76	=76	=76
4g]	4e]	1b	1r
4f	4d	.	.
2d	2B	.	.
2e	2c	1a	2r
2f#	2d	.	[2dd
=77	=77	=77	=77
1g	2G	1g	2dd]
.	1g	.	2b
1c	.	1r	2cc
.	2e	.	2ee
=78	=78	=78	=78
1d	2f	0r	2.dd
.	2a	.	.
.	.	.	4cc
1r	2.g	.	4b
.	.	.	4a
.	.	.	2b
.	4f	.	.
=79	=79	=79	=79
1r	2e	0r	2cc
.	2f	.	2a
2r	4d	.	1ff
.	4e	.	.
[2d	4f	.	.
.	4g	.	.
=80	=80	=80	=80
2d]	2a	1r	1dd
2B	4g	.	.
.	4f	.	.
2c	2e	1g	2ee
2e	[2g	.	2cc
=81	=81	=81	=81
1d	2g]	1a	0dd
.	2f#	.	.
2G	1g	1b	.
[2g	.	.	.
=82	=82	=82	=82
2g]	1c	0cc	1ee
2e	.	.	.
2f	1r	.	2r
2a	.	.	[2cc
=83	=83	=83	=83
2.g	2r	1dd	2cc]
.	1g	.	4b
4f	.	.	4a
2e	.	1ee	2b
2c	2e	.	2cc
=84	=84	=84	=84
1d	2f	0dd	1a
.	2a	.	.
2r	1g	.	2.b
[2g	.	.	.
.	.	.	8cc
.	.	.	8dd
=85	=85	=85	=85
2g]	1c	0cc	1ee
2e	.	.	.
2f	2r	.	1a
[2a	2A	.	.
=86	=86	=86	=86
4a]	2B	1b	1dd
4g	.	.	.
1g	2G	.	.
.	1d	1a	2r
2f#	.	.	[2dd
=87	=87	=87	=87
2.g	1G	[0g	2dd]
.	.	.	2b
4f	.	.	.
2.e	2.c	.	2cc
.	.	.	[2ee
4d	4d	.	.
=88	=88	=88	=88
2c	2e	0g]	2ee]
2d	2B	.	2dd
1e	1c	.	1cc
=89	=89	=89	=89
[0d	[0G	[0g	[0b
=90	=90	=90	=90
0d]	0G]	0g]	0b]
*-	*-	*-	*-
!!!CDT: 1525/^1526/-1594/2/2
!!!OCY: Italia
!!!AGN: Mass (Tenor)
!!!AST: renaissance, vocal
!!!ASW: Antiphon
!!!PWK: Masses, Book 3
!!!RNB: Cadence finals: G
!!!YOR: Le Opere Complete, v. 6, p. 216
!!!YOO: Rome, Italy: Fratelli Scalera
!!!END: 1992//
!!!EED: John Miller
!!!YEC: Copyright 2000, John Miller
!!!YEN: United States of America
!!!YEM: Rights to all derivative electronic formats reserved.
!!!YEM: Refer to licensing agreement for further details.
!!!YEM: This file must be accompanied by the licensing agreement.
!!!YEM: A copy of the licensing agreement may be found at http://www.music-cog.ohio-state.edu/HumdrumDatabases/Palestrina/license.txt
!!!EMD: converted to Humdrum by Bret Aarden
